!!!OTL: Das Hildebrandslied
!!!ARE: Europa, Mitteleuropa, Deutschland
!!!SCT: A0001
!!!YEM: Copyright 1995, estate of Helmut Schaffrath.
**kern
*ICvox
*Ivox
*M4/2
*k[b-e-]
*g:
{2g
=1
2b-
2b-
2cc
2cc
=2
1dd
1dd}
=3
{2r
1dd
2dd
=4
2dd
2ee
2ffn
2dd
=5
1dd
2r}
{2dd
=6
2dd
2ee
2ffn
2dd
=7
1ee-
1dd}
=8
{2r
2dd
2cc
2b-
=9
2dd
2b-
1b-}
=10
{2r
2b-
2b-
2b-
=11
2cc
2cc
1dd
=12
1dd
2r}
{2dd
=13
2cc
2b-
2b-
2b-
=14
1a
1g}
=15
{2r
2dd
2.dd
4cc
=16
1b-
2r}
{2dd
=17
2ee-
2dd
2dd
2b-
=18
1cc
1dd}
=19
{2r
2cc
4b-
4b-
2g
=20
2g
2e
1f#
=21
1.g}
==
!!!AGN: Romanze, Ballade, Lied
!!!ONB: ESAC (Essen Associative Code) Database: ALTDEU
!!!AMT: simple quadruple
!!!AIN: vox
!!!EED: Helmut Schaffrath
!!!EEV: 1.0
*-
